icons/cup.svg

<svg xmlns="http://www.w3.org/2000/svg" viewBox="0 0 24 24" fill="currentColor">
  <path d="M3.75 8c0-1.28579.96421-2.25 2.25-2.25h8c1.2858 0 2.25.96421 2.25 2.25v8c0 1.1858-1.0642 2.25-2.25 2.25H6c-1.28579 0-2.25-.9642-2.25-2.25V8Zm13.9294 8.7013C17.3351 18.4009 15.7757 19.75 14 19.75H6c-2.11421 0-3.75-1.6358-3.75-3.75V8c0-2.11421 1.63579-3.75 3.75-3.75h8c1.8742 0 3.3724 1.2854 3.6884 3.05002C19.979 7.63568 21.75 9.61948 21.75 12c0 2.3836-1.7756 4.3695-4.0706 4.7013Zm.0706-7.86316c1.4281.3414 2.5 1.63396 2.5 3.16186 0 1.5279-1.0719 2.8205-2.5 3.1619V8.83814Z"/>
</svg>

<svg width="24" height="24" viewBox="0 0 24 24" fill="none" xmlns="http://www.w3.org/2000/svg">
<path fill-rule="evenodd" clip-rule="evenodd" d="M3.75 8C3.75 6.71421 4.71421 5.75 6 5.75H14C15.2858 5.75 16.25 6.71421 16.25 8V16C16.25 17.1858 15.1858 18.25 14 18.25H6C4.71421 18.25 3.75 17.2858 3.75 16V8ZM17.6794 16.7013C17.3351 18.4009 15.7757 19.75 14 19.75H6C3.88579 19.75 2.25 18.1142 2.25 16V8C2.25 5.88579 3.88579 4.25 6 4.25H14C15.8742 4.25 17.3724 5.5354 17.6884 7.30002C19.979 7.63568 21.75 9.61948 21.75 12C21.75 14.3836 19.9744 16.3695 17.6794 16.7013ZM17.75 8.83814C19.1781 9.17954 20.25 10.4721 20.25 12C20.25 13.5279 19.1781 14.8205 17.75 15.1619V8.83814Z" fill="black"/>
</svg>
